; generated by PrusaSlicer 2.1.0+win64 on 2019-12-14 at 14:20:13 UTC

; 

; external perimeters extrusion width = 0.45mm
; perimeters extrusion width = 0.45mm
; infill extrusion width = 0.45mm
; solid infill extrusion width = 0.45mm
; top infill extrusion width = 0.40mm
; first layer extrusion width = 0.42mm

M73 P0 R123
M73 Q0 S123
M201 X1000 Y1000 Z1000 E5000 ; sets maximum accelerations, mm/sec^2
M203 X200 Y200 Z12 E120 ; sets maximum feedrates, mm/sec
M204 P1250 R1250 T1250 ; sets acceleration (P, T) and retract acceleration (R), mm/sec^2
M205 X8.00 Y8.00 Z0.40 E1.50 ; sets the jerk limits, mm/sec
M205 S0 T0 ; sets the minimum extruding and travel feed rate, mm/sec
M107
M862.3 P "MK3" ; printer model check
M862.1 P0.4 ; nozzle diameter check
M115 U3.8.1 ; tell printer latest fw version
G90 ; use absolute coordinates
M83 ; extruder relative mode
M104 S215 ; set extruder temp
M140 S60 ; set bed temp
M190 S60 ; wait for bed temp
M109 S215 ; wait for extruder temp
G28 W ; home all without mesh bed level
G80 ; mesh bed leveling
G1 Y-3.0 F1000.0 ; go outside print area
G92 E0.0
G1 X60.0 E9.0 F1000.0 ; intro line
M73 Q0 S123
M73 P0 R123
G1 X100.0 E12.5 F1000.0 ; intro line
G92 E0.0
M221 S95
G21 ; set units to millimeters
G90 ; use absolute coordinates
M83 ; use relative distances for extrusion
M900 K30 ; Filament gcode
;BEFORE_LAYER_CHANGE
G92 E0.0
;0.2


G1 E-0.80000 F2100.00000
G1 Z0.600 F10800.000
;AFTER_LAYER_CHANGE
;0.2
G1 X94.139 Y75.673
G1 Z0.200
G1 E0.80000 F2100.00000
M204 S1000
G1 F1200
G1 X96.590 Y72.968 E0.11443
G1 X99.294 Y70.518 E0.11443
G1 X102.225 Y68.344 E0.11443
G1 X105.356 Y66.468 E0.11443
G1 X108.655 Y64.907 E0.11443
G1 X112.091 Y63.678 E0.11443
G1 X115.631 Y62.791 E0.11443
G1 X119.241 Y62.256 E0.11443
G1 X122.890 Y62.077 E0.11454
G1 X126.532 Y62.256 E0.11431
G1 X130.142 Y62.792 E0.11443
G1 X133.682 Y63.679 E0.11443
G1 X137.118 Y64.908 E0.11443
G1 X140.417 Y66.469 E0.11443
G1 X143.547 Y68.345 E0.11443
G1 X146.478 Y70.519 E0.11443
G1 X149.182 Y72.970 E0.11443
G1 X151.633 Y75.674 E0.11443
G1 X153.807 Y78.606 E0.11443
G1 X155.683 Y81.736 E0.11443
G1 X157.243 Y85.035 E0.11443
G1 X158.473 Y88.471 E0.11443
G1 X159.359 Y92.012 E0.11443
G1 X159.895 Y95.622 E0.11443
G1 X160.074 Y99.267 E0.11443
G1 X159.895 Y102.912 E0.11443
G1 X159.359 Y106.522 E0.11443
G1 X158.472 Y110.062 E0.11443
G1 X157.243 Y113.498 E0.11443
G1 X155.682 Y116.797 E0.11443
G1 X153.806 Y119.927 E0.11443
G1 X151.632 Y122.859 E0.11443
G1 X149.181 Y125.563 E0.11443
G1 X146.477 Y128.013 E0.11443
G1 X143.545 Y130.187 E0.11443
G1 X140.415 Y132.063 E0.11443
G1 X137.116 Y133.624 E0.11443
G1 X133.680 Y134.853 E0.11443
G1 X130.139 Y135.740 E0.11443
G1 X126.529 Y136.275 E0.11443
G1 X122.884 Y136.454 E0.11443
G1 X119.239 Y136.275 E0.11443
G1 X115.629 Y135.739 E0.11443
G1 X112.089 Y134.852 E0.11443
G1 X108.653 Y133.623 E0.11443
G1 X105.354 Y132.062 E0.11443
G1 X102.224 Y130.186 E0.11443
G1 X99.292 Y128.012 E0.11443
G1 X96.588 Y125.561 E0.11443
G1 X94.137 Y122.857 E0.11443
G1 X91.964 Y119.925 E0.11443
G1 X90.087 Y116.795 E0.11443
G1 X88.527 Y113.496 E0.11443
G1 X87.298 Y110.060 E0.11443
G1 X86.411 Y106.520 E0.11443
G1 X85.876 Y102.910 E0.11443
G1 X85.697 Y99.264 E0.11443
G1 X85.876 Y95.619 E0.11443
G1 X86.412 Y92.009 E0.11443
G1 X87.298 Y88.469 E0.11443
G1 X88.528 Y85.033 E0.11443
G1 X90.088 Y81.734 E0.11443
G1 X91.965 Y78.604 E0.11443
G1 X94.103 Y75.721 E0.11255
G1 F8640
G1 X96.310 Y73.278 E-0.76000
G1 E-0.04000 F2100.00000
G1 Z0.800 F10800.000
G1 X115.588 Y112.873
G1 Z0.200
G1 E0.80000 F2100.00000
G1 F1200
G1 X116.987 Y113.505 E0.04813
G1 X118.423 Y114.048 E0.04813
G1 X113.171 Y130.925 E0.55419
G1 X110.223 Y129.834 E0.09855
G1 X107.368 Y128.521 E0.09855
G1 X115.560 Y112.927 E0.55231
G1 X115.757 Y113.363 F10800.000
G1 F1200
G1 X116.843 Y113.854 E0.03737
G1 X117.958 Y114.275 E0.03737
G1 X112.929 Y130.433 E0.53059
G1 X110.368 Y129.486 E0.08564
G1 X107.886 Y128.344 E0.08564
G1 X115.729 Y113.416 E0.52871
G1 X115.909 Y112.993 F10800.000
G1 F8640
G1 X116.843 Y113.854 E-0.27635
G1 X117.958 Y114.275 E-0.27517
G1 X117.689 Y115.137 E-0.20848
G1 E-0.04000 F2100.00000
G1 Z0.800 F10800.000
G1 X109.277 Y106.563
G1 Z0.200
G1 E0.80000 F2100.00000
G1 F1200
G1 X93.630 Y114.783 E0.55419
G1 X92.316 Y111.928 E0.09855
G1 X91.226 Y108.979 E0.09855
G1 X108.103 Y103.728 E0.55419
G1 X108.646 Y105.164 E0.04813
G1 X109.253 Y106.508 E0.04625
G1 X108.788 Y106.394 F10800.000
G1 F1200
G1 X93.807 Y114.264 E0.53059
G1 X92.665 Y111.783 E0.08564
G1 X91.718 Y109.221 E0.08564
G1 X107.876 Y104.193 E0.53059
G1 X108.297 Y105.308 E0.03737
G1 X108.763 Y106.340 E0.03548
G1 X108.963 Y106.754 F10800.000
G1 F8640
G1 X105.855 Y107.881 E-0.76000
G1 E-0.04000 F2100.00000
G1 Z0.800 F10800.000
G1 X108.103 Y94.803
G1 Z0.200
G1 E0.80000 F2100.00000
G1 F1200
G1 X91.226 Y89.552 E0.55419
G1 X92.316 Y86.604 E0.09855
G1 X93.630 Y83.748 E0.09855
G1 X109.277 Y91.968 E0.55419
G1 X108.646 Y93.367 E0.04813
G1 X108.124 Y94.747 E0.04625
G1 X107.876 Y94.338 F10800.000
G1 F1200
G1 X91.718 Y89.310 E0.53059
G1 X92.665 Y86.748 E0.08564
G1 X93.807 Y84.267 E0.08564
G1 X108.788 Y92.137 E0.53059
G1 X108.297 Y93.223 E0.03737
G1 X107.897 Y94.282 E0.03548
G1 X107.746 Y94.716 F10800.000
G1 F8640
G1 X104.751 Y93.315 E-0.76000
G1 E-0.04000 F2100.00000
G1 Z0.800 F10800.000
G1 X115.588 Y85.658
G1 Z0.200
G1 E0.80000 F2100.00000
G1 F1200
G1 X107.368 Y70.010 E0.55419
G1 X110.223 Y68.697 E0.09855
G1 X113.171 Y67.606 E0.09855
G1 X118.423 Y84.483 E0.55419
G1 X116.987 Y85.026 E0.04813
G1 X115.643 Y85.633 E0.04625
G1 X115.757 Y85.168 F10800.000
G1 F1200
G1 X107.886 Y70.187 E0.53059
G1 X110.368 Y69.045 E0.08564
G1 X112.929 Y68.098 E0.08564
G1 X117.958 Y84.256 E0.53059
G1 X116.843 Y84.678 E0.03737
G1 X115.811 Y85.143 E0.03548
G1 X115.397 Y85.343 F10800.000
G1 F8640
G1 X114.270 Y82.235 E-0.76000
G1 E-0.04000 F2100.00000
G1 Z0.800 F10800.000
G1 X127.348 Y84.483
G1 Z0.200
G1 E0.80000 F2100.00000
G1 F1200
G1 X132.599 Y67.606 E0.55419
G1 X135.547 Y68.697 E0.09855
G1 X138.403 Y70.010 E0.09855
G1 X130.183 Y85.658 E0.55419
G1 X128.783 Y85.026 E0.04813
G1 X127.404 Y84.505 E0.04625
G1 X127.813 Y84.256 F10800.000
G1 F1200
G1 X132.841 Y68.098 E0.53059
G1 X135.403 Y69.045 E0.08564
G1 X137.884 Y70.187 E0.08564
G1 X130.014 Y85.168 E0.53059
G1 X128.928 Y84.678 E0.03737
G1 X127.869 Y84.277 E0.03548
G1 X127.435 Y84.126 F10800.000
G1 F8640
G1 X128.836 Y81.131 E-0.76000
G1 E-0.04000 F2100.00000
G1 Z0.800 F10800.000
G1 X125.776 Y91.179
G1 Z0.200
G1 E0.80000 F2100.00000
G1 F1200
G1 X126.557 Y91.502 E0.02651
G1 X127.300 Y91.900 E0.02642
G1 X128.001 Y92.368 E0.02642
G1 X128.653 Y92.902 E0.02642
G1 X129.248 Y93.498 E0.02642
G1 X129.783 Y94.150 E0.02642
G1 X130.251 Y94.851 E0.02642
G1 X130.649 Y95.594 E0.02642
G1 X130.971 Y96.372 E0.02642
G1 X131.216 Y97.179 E0.02642
G1 X131.380 Y98.005 E0.02642
G1 X131.463 Y98.844 E0.02642
G1 X131.463 Y99.687 E0.02642
G1 X131.380 Y100.526 E0.02642
G1 X131.216 Y101.352 E0.02642
G1 X130.971 Y102.159 E0.02642
G1 X130.649 Y102.937 E0.02642
G1 X130.251 Y103.681 E0.02642
G1 X129.783 Y104.381 E0.02642
G1 X129.248 Y105.033 E0.02642
G1 X128.653 Y105.629 E0.02642
G1 X128.001 Y106.163 E0.02642
G1 X127.300 Y106.632 E0.02642
G1 X126.557 Y107.029 E0.02642
G1 X125.778 Y107.351 E0.02642
G1 X124.972 Y107.596 E0.02642
G1 X124.145 Y107.760 E0.02642
G1 X123.307 Y107.843 E0.02642
G1 X122.464 Y107.843 E0.02642
G1 X121.625 Y107.760 E0.02642
G1 X120.799 Y107.596 E0.02642
G1 X119.992 Y107.351 E0.02642
G1 X119.214 Y107.029 E0.02642
G1 X118.470 Y106.632 E0.02642
G1 X117.770 Y106.163 E0.02642
G1 X117.118 Y105.629 E0.02642
G1 X116.522 Y105.033 E0.02642
G1 X115.988 Y104.381 E0.02642
G1 X115.519 Y103.681 E0.02642
G1 X115.122 Y102.937 E0.02642
G1 X114.800 Y102.159 E0.02642
G1 X114.555 Y101.352 E0.02642
G1 X114.390 Y100.526 E0.02642
G1 X114.308 Y99.687 E0.02642
G1 X114.308 Y98.844 E0.02642
G1 X114.390 Y98.005 E0.02642
G1 X114.555 Y97.179 E0.02642
G1 X114.800 Y96.372 E0.02642
G1 X115.122 Y95.594 E0.02642
G1 X115.519 Y94.851 E0.02642
G1 X115.988 Y94.150 E0.02642
G1 X116.522 Y93.498 E0.02642
G1 X117.118 Y92.902 E0.02642
G1 X117.770 Y92.368 E0.02642
G1 X118.470 Y91.900 E0.02642
G1 X119.214 Y91.502 E0.02642
G1 X119.992 Y91.180 E0.02642
G1 X120.799 Y90.935 E0.02642
G1 X121.626 Y90.771 E0.02646
G1 X122.505 Y90.687 E0.02766
G1 X123.307 Y90.688 E0.02516
G1 X124.145 Y90.771 E0.02641
G1 X124.972 Y90.935 E0.02642
G1 X125.718 Y91.162 E0.02445
G1 X125.609 Y91.522 F10800.000
G1 F1200
G1 X126.396 Y91.844 E0.02665
G1 X127.106 Y92.223 E0.02526
G1 X127.776 Y92.671 E0.02526
G1 X128.399 Y93.182 E0.02526
G1 X128.969 Y93.752 E0.02526
G1 X129.480 Y94.375 E0.02526
G1 X129.927 Y95.045 E0.02526
G1 X130.307 Y95.755 E0.02526
G1 X130.616 Y96.500 E0.02526
G1 X130.850 Y97.271 E0.02526
G1 X131.007 Y98.061 E0.02526
G1 X131.086 Y98.863 E0.02526
G1 X131.086 Y99.668 E0.02526
G1 X131.007 Y100.470 E0.02526
G1 X130.850 Y101.260 E0.02526
G1 X130.616 Y102.031 E0.02526
G1 X130.307 Y102.776 E0.02526
G1 X129.927 Y103.486 E0.02526
G1 X129.480 Y104.156 E0.02526
G1 X128.969 Y104.779 E0.02526
G1 X128.399 Y105.349 E0.02526
G1 X127.776 Y105.860 E0.02526
G1 X127.106 Y106.308 E0.02526
G1 X126.396 Y106.688 E0.02526
G1 X125.651 Y106.996 E0.02526
G1 X124.880 Y107.230 E0.02526
G1 X124.090 Y107.387 E0.02526
G1 X123.288 Y107.466 E0.02526
G1 X122.482 Y107.466 E0.02526
G1 X121.681 Y107.387 E0.02526
G1 X120.890 Y107.230 E0.02526
G1 X120.119 Y106.996 E0.02526
G1 X119.375 Y106.688 E0.02526
G1 X118.664 Y106.308 E0.02526
G1 X117.994 Y105.860 E0.02526
G1 X117.372 Y105.349 E0.02526
G1 X116.802 Y104.779 E0.02526
G1 X116.291 Y104.156 E0.02526
G1 X115.843 Y103.486 E0.02526
G1 X115.463 Y102.776 E0.02526
G1 X115.155 Y102.031 E0.02526
G1 X114.921 Y101.260 E0.02526
G1 X114.764 Y100.470 E0.02526
G1 X114.685 Y99.668 E0.02526
G1 X114.685 Y98.863 E0.02526
G1 X114.764 Y98.061 E0.02526
G1 X114.921 Y97.271 E0.02526
G1 X115.155 Y96.500 E0.02526
G1 X115.463 Y95.755 E0.02526
G1 X115.843 Y95.045 E0.02526
G1 X116.291 Y94.375 E0.02526
G1 X116.802 Y93.752 E0.02526
G1 X117.372 Y93.182 E0.02526
G1 X117.994 Y92.671 E0.02526
G1 X118.664 Y92.223 E0.02526
G1 X119.375 Y91.844 E0.02526
G1 X120.119 Y91.535 E0.02526
G1 X120.890 Y91.301 E0.02526
G1 X121.681 Y91.144 E0.02527
G1 X122.522 Y91.064 E0.02649
G1 X123.288 Y91.065 E0.02402
G1 X124.090 Y91.144 E0.02526
G1 X124.880 Y91.301 E0.02526
G1 X125.551 Y91.505 E0.02199
G1 X125.913 Y91.262 F10800.000
G1 F8640
G1 X126.396 Y91.844 E-0.21004
G1 X127.106 Y92.223 E-0.18604
G1 X127.776 Y92.671 E-0.18604
G1 X128.372 Y93.160 E-0.17788
G1 E-0.04000 F2100.00000
G1 Z0.800 F10800.000
G1 X136.493 Y91.968
G1 Z0.200
G1 E0.80000 F2100.00000
G1 F1200
G1 X152.140 Y83.748 E0.55419
G1 X153.454 Y86.604 E0.09855
G1 X154.544 Y89.552 E0.09855
G1 X137.668 Y94.803 E0.55419
G1 X137.125 Y93.367 E0.04813
G1 X136.518 Y92.023 E0.04625
G1 X136.983 Y92.137 F10800.000
G1 F1200
G1 X151.964 Y84.267 E0.53059
G1 X153.106 Y86.748 E0.08564
G1 X154.053 Y89.310 E0.08564
G1 X137.895 Y94.338 E0.53059
G1 X137.473 Y93.223 E0.03737
G1 X137.008 Y92.191 E0.03548
G1 X136.808 Y91.777 F10800.000
G1 F8640
G1 X139.916 Y90.650 E-0.76000
G1 E-0.04000 F2100.00000
G1 Z0.800 F10800.000
G1 X137.668 Y103.728
G1 Z0.200
G1 E0.80000 F2100.00000
G1 F1200
G1 X154.544 Y108.979 E0.55419
G1 X153.454 Y111.928 E0.09855
G1 X152.140 Y114.783 E0.09855
G1 X136.493 Y106.563 E0.55419
G1 X137.125 Y105.164 E0.04813
G1 X137.646 Y103.784 E0.04625
G1 X137.895 Y104.193 F10800.000
G1 F1200
G1 X154.053 Y109.221 E0.53059
G1 X153.106 Y111.783 E0.08564
G1 X151.964 Y114.264 E0.08564
G1 X136.983 Y106.394 E0.53059
G1 X137.473 Y105.308 E0.03737
G1 X137.873 Y104.249 E0.03548
G1 X138.025 Y103.815 F10800.000
G1 F8640
G1 X141.020 Y105.216 E-0.76000
G1 E-0.04000 F2100.00000
G1 Z0.800 F10800.000
G1 X130.183 Y112.873
G1 Z0.200
G1 E0.80000 F2100.00000
G1 F1200
G1 X138.403 Y128.521 E0.55419
G1 X135.547 Y129.834 E0.09855
G1 X132.599 Y130.925 E0.09855
G1 X127.348 Y114.048 E0.55419
G1 X128.783 Y113.505 E0.04813
G1 X130.128 Y112.898 E0.04625
G1 X130.014 Y113.363 F10800.000
G1 F1200
G1 X137.884 Y128.344 E0.53059
G1 X135.403 Y129.486 E0.08564
G1 X132.841 Y130.433 E0.08564
G1 X127.813 Y114.275 E0.53059
M73 Q0 S122
M73 P0 R122
G1 X128.928 Y113.854 E0.03737
G1 X129.959 Y113.388 E0.03548
G1 X130.374 Y113.188 F10800.000
G1 F8640
G1 X131.500 Y116.296 E-0.76000
G1 E-0.04000 F2100.00000
G1 Z0.800 F10800.000
G1 X138.325 Y130.008
G1 Z0.200
G1 E0.80000 F2100.00000
G1 F1200
G1 X137.599 Y130.374 E0.02551
G1 X136.054 Y131.059 E0.05296
G1 X134.479 Y131.667 E0.05296
G1 X132.875 Y132.196 E0.05296
G1 X131.247 Y132.647 E0.05296
G1 X129.599 Y133.017 E0.05296
G1 X127.935 Y133.306 E0.05296
G1 X126.258 Y133.513 E0.05296
G1 X124.574 Y133.637 E0.05296
G1 X122.885 Y133.678 E0.05296
G1 X121.197 Y133.637 E0.05296
G1 X119.512 Y133.513 E0.05296
G1 X117.836 Y133.306 E0.05296
G1 X116.172 Y133.017 E0.05296
G1 X114.524 Y132.647 E0.05296
G1 X112.896 Y132.196 E0.05296
G1 X111.292 Y131.667 E0.05296
G1 X109.716 Y131.059 E0.05296
G1 X108.172 Y130.374 E0.05296
G1 X106.663 Y129.615 E0.05296
G1 X105.194 Y128.782 E0.05296
G1 X103.767 Y127.879 E0.05296
G1 X102.386 Y126.906 E0.05296
G1 X101.054 Y125.867 E0.05296
G1 X99.775 Y124.764 E0.05296
G1 X98.552 Y123.599 E0.05296
G1 X97.387 Y122.376 E0.05296
G1 X96.284 Y121.097 E0.05296
G1 X95.245 Y119.765 E0.05296
G1 X94.272 Y118.384 E0.05296
G1 X93.369 Y116.957 E0.05296
G1 X92.536 Y115.488 E0.05296
G1 X91.777 Y113.979 E0.05296
G1 X91.092 Y112.435 E0.05296
G1 X90.484 Y110.859 E0.05296
G1 X89.954 Y109.255 E0.05296
G1 X89.504 Y107.627 E0.05296
G1 X89.134 Y105.979 E0.05296
G1 X88.845 Y104.315 E0.05296
G1 X88.638 Y102.639 E0.05296
G1 X88.514 Y100.954 E0.05296
G1 X88.473 Y99.266 E0.05296
G1 X88.514 Y97.577 E0.05296
G1 X88.638 Y95.893 E0.05296
G1 X88.845 Y94.216 E0.05296
G1 X89.134 Y92.552 E0.05296
G1 X89.504 Y90.904 E0.05296
G1 X89.954 Y89.276 E0.05296
G1 X90.484 Y87.672 E0.05296
G1 X91.092 Y86.096 E0.05296
G1 X91.777 Y84.552 E0.05296
G1 X92.536 Y83.043 E0.05296
G1 X93.369 Y81.574 E0.05296
G1 X94.272 Y80.147 E0.05296
G1 X95.245 Y78.766 E0.05296
G1 X96.284 Y77.434 E0.05296
G1 X97.387 Y76.155 E0.05296
G1 X98.552 Y74.932 E0.05296
G1 X99.775 Y73.767 E0.05296
G1 X101.054 Y72.664 E0.05296
G1 X102.386 Y71.625 E0.05296
G1 X103.767 Y70.652 E0.05296
G1 X105.194 Y69.749 E0.05296
G1 X106.663 Y68.916 E0.05296
G1 X108.172 Y68.157 E0.05296
G1 X109.716 Y67.472 E0.05296
G1 X111.292 Y66.864 E0.05296
G1 X112.896 Y66.335 E0.05296
G1 X114.524 Y65.884 E0.05296
G1 X116.172 Y65.514 E0.05296
G1 X117.836 Y65.225 E0.05296
G1 X119.512 Y65.019 E0.05296
G1 X121.197 Y64.894 E0.05296
G1 X122.885 Y64.853 E0.05296
G1 X124.574 Y64.894 E0.05296
G1 X126.258 Y65.019 E0.05296
G1 X127.935 Y65.225 E0.05296
G1 X129.599 Y65.514 E0.05296
G1 X131.247 Y65.884 E0.05296
G1 X132.875 Y66.335 E0.05296
G1 X134.479 Y66.864 E0.05296
G1 X136.054 Y67.472 E0.05296
G1 X137.599 Y68.157 E0.05296
G1 X139.107 Y68.916 E0.05296
G1 X140.577 Y69.749 E0.05296
G1 X142.004 Y70.652 E0.05296
G1 X143.385 Y71.625 E0.05296
G1 X144.717 Y72.664 E0.05296
G1 X145.995 Y73.767 E0.05296
G1 X147.219 Y74.932 E0.05296
G1 X148.383 Y76.155 E0.05296
G1 X149.487 Y77.434 E0.05296
G1 X150.526 Y78.766 E0.05296
G1 X151.498 Y80.147 E0.05296
G1 X152.402 Y81.574 E0.05296
G1 X153.235 Y83.043 E0.05296
G1 X153.994 Y84.552 E0.05296
G1 X154.679 Y86.096 E0.05296
G1 X155.286 Y87.672 E0.05296
G1 X155.816 Y89.276 E0.05296
G1 X156.267 Y90.904 E0.05296
G1 X156.637 Y92.552 E0.05296
G1 X156.926 Y94.216 E0.05296
G1 X157.132 Y95.893 E0.05296
G1 X157.257 Y97.577 E0.05296
G1 X157.298 Y99.266 E0.05296
G1 X157.257 Y100.954 E0.05296
G1 X157.132 Y102.639 E0.05296
G1 X156.926 Y104.315 E0.05296
G1 X156.637 Y105.979 E0.05296
G1 X156.267 Y107.627 E0.05296
G1 X155.816 Y109.255 E0.05296
G1 X155.286 Y110.859 E0.05296
G1 X154.679 Y112.435 E0.05296
G1 X153.994 Y113.979 E0.05296
G1 X153.235 Y115.488 E0.05296
G1 X152.402 Y116.957 E0.05296
G1 X151.498 Y118.384 E0.05296
G1 X150.526 Y119.765 E0.05296
G1 X149.487 Y121.097 E0.05296
G1 X148.383 Y122.376 E0.05296
G1 X147.219 Y123.599 E0.05296
G1 X145.995 Y124.764 E0.05296
G1 X144.717 Y125.867 E0.05296
G1 X143.385 Y126.906 E0.05296
G1 X142.004 Y127.879 E0.05296
G1 X140.577 Y128.782 E0.05296
