; generated by PrusaSlicer 2.0.0+win64 on 2019-11-30 at 15:39:40

; 

; external perimeters extrusion width = 0.45mm
; perimeters extrusion width = 0.45mm
; infill extrusion width = 0.45mm
; solid infill extrusion width = 0.45mm
; top infill extrusion width = 0.40mm
; first layer extrusion width = 0.42mm

M73 P0 R65
M73 Q0 S65
M201 X1000 Y1000 Z1000 E5000 ; sets maximum accelerations, mm/sec^2
M203 X200 Y200 Z12 E120 ; sets maximum feedrates, mm/sec
M204 P1250 R1250 T1250 ; sets acceleration (P, T) and retract acceleration (R), mm/sec^2
M205 X8.00 Y8.00 Z0.40 E1.50 ; sets the jerk limits, mm/sec
M205 S0 T0 ; sets the minimum extruding and travel feed rate, mm/sec
M107
M115 U3.8.1 ; tell printer latest fw version
G90 ; use absolute coordinates
M83 ; extruder relative mode
M104 S215 ; set extruder temp
M140 S60 ; set bed temp
M190 S60 ; wait for bed temp
M109 S215 ; wait for extruder temp
G28 W ; home all without mesh bed level
G80 ; mesh bed leveling
G1 Y-3.0 F1000.0 ; go outside print area
G92 E0.0
G1 X60.0 E9.0 F1000.0 ; intro line
M73 Q0 S65
M73 P0 R65
G1 X100.0 E12.5 F1000.0 ; intro line
G92 E0.0
M221 S95
M900 K30 ; Filament gcode
G21 ; set units to millimeters
G90 ; use absolute coordinates
M83 ; use relative distances for extrusion
;BEFORE_LAYER_CHANGE
G92 E0.0
;0.2


G1 E-0.80000 F2100.00000
G1 Z0.600 F10800.000
;AFTER_LAYER_CHANGE
;0.2
G1 X89.295 Y75.699
G1 Z0.200
G1 E0.80000 F2100.00000
M204 S1000
G1 F1200
G1 X90.776 Y73.983 E0.07108
G1 X92.339 Y72.341 E0.07108
G1 X93.981 Y70.777 E0.07108
G1 X95.697 Y69.297 E0.07108
G1 X97.484 Y67.902 E0.07108
G1 X99.338 Y66.596 E0.07108
G1 X101.253 Y65.383 E0.07108
G1 X103.226 Y64.266 E0.07108
G1 X105.251 Y63.247 E0.07108
G1 X107.323 Y62.328 E0.07108
G1 X109.438 Y61.512 E0.07108
G1 X111.591 Y60.801 E0.07108
G1 X113.776 Y60.196 E0.07108
G1 X115.988 Y59.699 E0.07108
G1 X118.221 Y59.312 E0.07108
G1 X120.471 Y59.034 E0.07108
G1 X122.732 Y58.867 E0.07108
G1 X125.002 Y58.811 E0.07120
G1 X127.265 Y58.867 E0.07097
G1 X129.526 Y59.034 E0.07108
G1 X131.776 Y59.311 E0.07108
G1 X134.010 Y59.699 E0.07108
G1 X136.222 Y60.195 E0.07108
G1 X138.407 Y60.800 E0.07108
G1 X140.559 Y61.511 E0.07108
G1 X142.674 Y62.327 E0.07108
G1 X144.747 Y63.246 E0.07108
G1 X146.772 Y64.265 E0.07108
G1 X148.745 Y65.382 E0.07108
G1 X150.660 Y66.595 E0.07108
G1 X152.513 Y67.900 E0.07108
G1 X154.301 Y69.295 E0.07108
G1 X156.017 Y70.776 E0.07108
G1 X157.659 Y72.339 E0.07108
G1 X159.223 Y73.981 E0.07108
G1 X160.703 Y75.697 E0.07108
G1 X162.098 Y77.484 E0.07108
G1 X163.404 Y79.338 E0.07108
G1 X164.617 Y81.253 E0.07108
G1 X165.734 Y83.226 E0.07108
G1 X166.753 Y85.251 E0.07108
G1 X167.672 Y87.323 E0.07108
G1 X168.488 Y89.438 E0.07108
G1 X169.199 Y91.591 E0.07108
G1 X169.804 Y93.776 E0.07108
G1 X170.301 Y95.988 E0.07108
G1 X170.688 Y98.221 E0.07108
G1 X170.966 Y100.471 E0.07108
G1 X171.133 Y102.732 E0.07108
G1 X171.189 Y104.999 E0.07108
G1 X171.133 Y107.265 E0.07108
G1 X170.966 Y109.526 E0.07108
G1 X170.689 Y111.776 E0.07108
G1 X170.301 Y114.010 E0.07108
G1 X169.805 Y116.222 E0.07108
G1 X169.200 Y118.407 E0.07108
G1 X168.489 Y120.559 E0.07108
G1 X167.673 Y122.674 E0.07108
G1 X166.754 Y124.747 E0.07108
G1 X165.735 Y126.772 E0.07108
G1 X164.618 Y128.745 E0.07108
G1 X163.405 Y130.660 E0.07108
G1 X162.100 Y132.513 E0.07108
G1 X160.705 Y134.301 E0.07108
G1 X159.224 Y136.017 E0.07108
G1 X157.661 Y137.659 E0.07108
G1 X156.019 Y139.223 E0.07108
G1 X154.303 Y140.703 E0.07108
G1 X152.516 Y142.098 E0.07108
G1 X150.662 Y143.404 E0.07108
G1 X148.747 Y144.617 E0.07108
G1 X146.774 Y145.734 E0.07108
G1 X144.749 Y146.753 E0.07108
G1 X142.677 Y147.672 E0.07108
G1 X140.562 Y148.488 E0.07108
G1 X138.409 Y149.199 E0.07108
G1 X136.224 Y149.804 E0.07108
G1 X134.012 Y150.301 E0.07108
G1 X131.779 Y150.688 E0.07108
G1 X129.529 Y150.966 E0.07108
G1 X127.268 Y151.133 E0.07108
G1 X125.001 Y151.189 E0.07108
G1 X122.735 Y151.133 E0.07108
G1 X120.474 Y150.966 E0.07108
G1 X118.224 Y150.689 E0.07108
G1 X115.990 Y150.301 E0.07108
G1 X113.778 Y149.805 E0.07108
G1 X111.593 Y149.200 E0.07108
G1 X109.441 Y148.489 E0.07108
G1 X107.326 Y147.673 E0.07108
G1 X105.253 Y146.754 E0.07108
G1 X103.228 Y145.735 E0.07108
G1 X101.255 Y144.618 E0.07108
G1 X99.340 Y143.405 E0.07108
G1 X97.487 Y142.100 E0.07108
G1 X95.699 Y140.705 E0.07108
G1 X93.983 Y139.224 E0.07108
G1 X92.341 Y137.661 E0.07108
G1 X90.777 Y136.019 E0.07108
G1 X89.297 Y134.303 E0.07108
G1 X87.902 Y132.515 E0.07108
G1 X86.596 Y130.662 E0.07108
G1 X85.383 Y128.747 E0.07108
G1 X84.266 Y126.774 E0.07108
G1 X83.247 Y124.749 E0.07108
G1 X82.328 Y122.677 E0.07108
G1 X81.512 Y120.562 E0.07108
G1 X80.801 Y118.409 E0.07108
G1 X80.196 Y116.224 E0.07108
G1 X79.699 Y114.012 E0.07108
G1 X79.312 Y111.779 E0.07108
G1 X79.034 Y109.529 E0.07108
G1 X78.867 Y107.268 E0.07108
G1 X78.811 Y105.001 E0.07108
G1 X78.867 Y102.735 E0.07108
G1 X79.034 Y100.474 E0.07108
G1 X79.311 Y98.224 E0.07108
G1 X79.699 Y95.990 E0.07108
G1 X80.195 Y93.778 E0.07108
G1 X80.800 Y91.593 E0.07108
G1 X81.511 Y89.441 E0.07108
G1 X82.327 Y87.326 E0.07108
G1 X83.246 Y85.253 E0.07108
G1 X84.265 Y83.228 E0.07108
G1 X85.382 Y81.255 E0.07108
G1 X86.595 Y79.340 E0.07108
G1 X87.900 Y77.487 E0.07108
G1 X89.258 Y75.747 E0.06920
G1 F8640
G1 X90.776 Y73.983 E-0.53730
G1 X91.441 Y73.284 E-0.22270
G1 E-0.04000 F2100.00000
G1 Z0.800 F10800.000
G1 X117.244 Y98.947
G1 Z0.200
G1 E0.80000 F2100.00000
G1 F1200
G1 X117.875 Y98.216 E0.03027
G1 X118.574 Y97.551 E0.03027
G1 X119.335 Y96.957 E0.03027
G1 X120.151 Y96.440 E0.03027
G1 X121.013 Y96.006 E0.03027
G1 X121.914 Y95.659 E0.03027
G1 X122.845 Y95.401 E0.03027
G1 X123.796 Y95.236 E0.03027
G1 X124.762 Y95.165 E0.03037
G1 X125.724 Y95.189 E0.03017
G1 X126.682 Y95.307 E0.03027
G1 X127.624 Y95.519 E0.03027
G1 X128.541 Y95.821 E0.03027
G1 X129.423 Y96.213 E0.03027
G1 X130.263 Y96.689 E0.03027
G1 X131.053 Y97.244 E0.03027
G1 X131.784 Y97.875 E0.03027
G1 X132.449 Y98.574 E0.03027
G1 X133.043 Y99.335 E0.03027
G1 X133.560 Y100.151 E0.03027
G1 X133.994 Y101.013 E0.03027
G1 X134.341 Y101.914 E0.03027
G1 X134.599 Y102.845 E0.03027
G1 X134.764 Y103.796 E0.03027
G1 X134.835 Y104.759 E0.03027
G1 X134.811 Y105.724 E0.03027
G1 X134.693 Y106.682 E0.03027
G1 X134.481 Y107.624 E0.03027
G1 X134.179 Y108.541 E0.03027
G1 X133.787 Y109.423 E0.03027
G1 X133.311 Y110.263 E0.03027
G1 X132.756 Y111.053 E0.03027
G1 X132.125 Y111.784 E0.03027
G1 X131.426 Y112.449 E0.03027
G1 X130.665 Y113.043 E0.03027
G1 X129.849 Y113.560 E0.03027
G1 X128.987 Y113.994 E0.03027
G1 X128.086 Y114.341 E0.03027
G1 X127.155 Y114.599 E0.03027
G1 X126.204 Y114.764 E0.03027
G1 X125.241 Y114.835 E0.03027
G1 X124.276 Y114.811 E0.03027
G1 X123.318 Y114.693 E0.03027
G1 X122.376 Y114.481 E0.03027
G1 X121.459 Y114.179 E0.03027
G1 X120.577 Y113.787 E0.03027
G1 X119.737 Y113.311 E0.03027
G1 X118.947 Y112.756 E0.03027
G1 X118.216 Y112.125 E0.03027
G1 X117.551 Y111.426 E0.03027
G1 X116.957 Y110.665 E0.03027
G1 X116.440 Y109.849 E0.03027
G1 X116.006 Y108.987 E0.03027
G1 X115.659 Y108.086 E0.03027
G1 X115.401 Y107.155 E0.03027
G1 X115.236 Y106.204 E0.03027
G1 X115.165 Y105.241 E0.03027
G1 X115.189 Y104.276 E0.03027
G1 X115.307 Y103.318 E0.03027
G1 X115.519 Y102.376 E0.03027
G1 X115.821 Y101.459 E0.03027
G1 X116.213 Y100.577 E0.03027
G1 X116.689 Y99.737 E0.03027
G1 X117.210 Y98.997 E0.02839
G1 X117.518 Y99.214 F10800.000
G1 F1200
G1 X118.148 Y98.477 E0.03040
G1 X118.821 Y97.837 E0.02911
G1 X119.553 Y97.265 E0.02911
G1 X120.337 Y96.769 E0.02911
G1 X121.166 Y96.351 E0.02911
G1 X122.032 Y96.017 E0.02911
G1 X122.927 Y95.770 E0.02911
G1 X123.842 Y95.611 E0.02911
G1 X124.771 Y95.543 E0.02921
G1 X125.696 Y95.565 E0.02901
G1 X126.617 Y95.679 E0.02911
G1 X127.523 Y95.882 E0.02911
G1 X128.405 Y96.174 E0.02911
G1 X129.253 Y96.550 E0.02911
G1 X130.061 Y97.007 E0.02911
G1 X130.820 Y97.542 E0.02911
G1 X131.523 Y98.148 E0.02911
G1 X132.163 Y98.821 E0.02911
G1 X132.735 Y99.553 E0.02911
G1 X133.231 Y100.337 E0.02911
G1 X133.649 Y101.166 E0.02911
G1 X133.983 Y102.032 E0.02911
G1 X134.230 Y102.927 E0.02911
G1 X134.389 Y103.842 E0.02911
G1 X134.457 Y104.768 E0.02911
G1 X134.435 Y105.696 E0.02911
G1 X134.321 Y106.617 E0.02911
G1 X134.118 Y107.523 E0.02911
G1 X133.826 Y108.405 E0.02911
G1 X133.450 Y109.253 E0.02911
G1 X132.993 Y110.061 E0.02911
G1 X132.458 Y110.820 E0.02911
G1 X131.852 Y111.523 E0.02911
G1 X131.179 Y112.163 E0.02911
G1 X130.447 Y112.735 E0.02911
G1 X129.663 Y113.231 E0.02911
G1 X128.834 Y113.649 E0.02911
G1 X127.968 Y113.983 E0.02911
G1 X127.073 Y114.230 E0.02911
G1 X126.158 Y114.389 E0.02911
G1 X125.232 Y114.457 E0.02911
G1 X124.304 Y114.435 E0.02911
G1 X123.383 Y114.321 E0.02911
G1 X122.477 Y114.118 E0.02911
G1 X121.595 Y113.826 E0.02911
G1 X120.747 Y113.450 E0.02911
G1 X119.939 Y112.993 E0.02911
G1 X119.180 Y112.458 E0.02911
G1 X118.477 Y111.852 E0.02911
G1 X117.837 Y111.179 E0.02911
G1 X117.265 Y110.447 E0.02911
G1 X116.769 Y109.663 E0.02911
G1 X116.351 Y108.834 E0.02911
G1 X116.017 Y107.968 E0.02911
G1 X115.770 Y107.073 E0.02911
G1 X115.611 Y106.158 E0.02911
G1 X115.543 Y105.232 E0.02911
G1 X115.565 Y104.304 E0.02911
G1 X115.679 Y103.383 E0.02911
G1 X115.882 Y102.477 E0.02911
G1 X116.174 Y101.595 E0.02911
G1 X116.550 Y100.747 E0.02911
G1 X117.007 Y99.939 E0.02911
G1 X117.484 Y99.263 E0.02593
G1 X117.367 Y98.843 F10800.000
G1 F8640
G1 X118.148 Y98.477 E-0.23770
G1 X118.821 Y97.837 E-0.21437
G1 X119.553 Y97.265 E-0.21437
G1 X119.895 Y97.049 E-0.09357
G1 E-0.04000 F2100.00000
G1 Z0.800 F10800.000
G1 X90.462 Y78.703
G1 Z0.200
G1 E0.80000 F2100.00000
G1 F1200
G1 X91.441 Y77.459 E0.04965
G1 X92.127 Y76.644 E0.03341
G1 X92.833 Y75.846 E0.03341
G1 X93.558 Y75.065 E0.03341
G1 X94.302 Y74.302 E0.03341
G1 X95.065 Y73.558 E0.03341
G1 X95.846 Y72.833 E0.03341
G1 X96.644 Y72.127 E0.03341
G1 X97.459 Y71.441 E0.03341
G1 X98.291 Y70.776 E0.03341
G1 X99.139 Y70.130 E0.03341
G1 X100.003 Y69.506 E0.03341
G1 X100.881 Y68.904 E0.03341
G1 X101.774 Y68.322 E0.03341
G1 X102.681 Y67.764 E0.03341
G1 X103.602 Y67.227 E0.03341
G1 X104.535 Y66.713 E0.03341
G1 X105.481 Y66.223 E0.03341
G1 X106.439 Y65.755 E0.03341
G1 X107.407 Y65.312 E0.03341
G1 X108.387 Y64.892 E0.03341
G1 X109.376 Y64.496 E0.03341
G1 X110.375 Y64.125 E0.03341
G1 X111.382 Y63.778 E0.03341
G1 X112.398 Y63.456 E0.03341
G1 X113.421 Y63.160 E0.03341
G1 X114.452 Y62.888 E0.03341
G1 X115.488 Y62.642 E0.03341
G1 X116.531 Y62.421 E0.03341
G1 X117.578 Y62.226 E0.03341
G1 X118.630 Y62.057 E0.03341
G1 X119.686 Y61.914 E0.03341
G1 X120.745 Y61.796 E0.03341
G1 X121.806 Y61.705 E0.03341
G1 X122.870 Y61.639 E0.03341
G1 X123.935 Y61.600 E0.03341
G1 X125.000 Y61.587 E0.03341
G1 X127.131 Y61.639 E0.06683
G1 X128.194 Y61.705 E0.03339
G1 X129.255 Y61.796 E0.03341
G1 X130.314 Y61.914 E0.03341
G1 X131.370 Y62.057 E0.03341
G1 X132.422 Y62.226 E0.03341
G1 X133.469 Y62.421 E0.03341
G1 X134.512 Y62.642 E0.03341
G1 X135.548 Y62.888 E0.03341
G1 X136.579 Y63.160 E0.03341
G1 X137.602 Y63.456 E0.03341
G1 X138.618 Y63.778 E0.03341
G1 X139.625 Y64.125 E0.03341
G1 X140.624 Y64.496 E0.03341
G1 X141.613 Y64.892 E0.03341
G1 X142.593 Y65.312 E0.03341
G1 X143.561 Y65.755 E0.03341
G1 X144.519 Y66.223 E0.03341
G1 X145.465 Y66.713 E0.03341
G1 X146.398 Y67.227 E0.03341
G1 X147.319 Y67.764 E0.03341
G1 X148.226 Y68.322 E0.03341
G1 X149.119 Y68.904 E0.03341
G1 X149.997 Y69.506 E0.03341
G1 X150.861 Y70.130 E0.03341
G1 X151.709 Y70.776 E0.03341
G1 X152.541 Y71.441 E0.03341
G1 X153.356 Y72.127 E0.03341
G1 X154.154 Y72.833 E0.03341
G1 X154.935 Y73.558 E0.03341
G1 X155.698 Y74.302 E0.03341
G1 X156.442 Y75.065 E0.03341
G1 X157.167 Y75.846 E0.03341
G1 X157.873 Y76.644 E0.03341
G1 X158.559 Y77.459 E0.03341
G1 X159.224 Y78.291 E0.03341
G1 X159.870 Y79.139 E0.03341
G1 X160.494 Y80.003 E0.03341
G1 X161.096 Y80.881 E0.03341
G1 X161.678 Y81.774 E0.03341
G1 X162.236 Y82.681 E0.03341
G1 X162.773 Y83.602 E0.03341
G1 X163.287 Y84.535 E0.03341
G1 X163.777 Y85.481 E0.03341
G1 X164.245 Y86.439 E0.03341
G1 X164.688 Y87.407 E0.03341
G1 X165.108 Y88.387 E0.03341
G1 X165.504 Y89.376 E0.03341
G1 X165.875 Y90.375 E0.03341
G1 X166.222 Y91.382 E0.03341
G1 X166.544 Y92.398 E0.03341
G1 X166.840 Y93.421 E0.03341
G1 X167.112 Y94.452 E0.03341
G1 X167.358 Y95.488 E0.03341
G1 X167.579 Y96.531 E0.03341
G1 X167.774 Y97.578 E0.03341
G1 X167.943 Y98.630 E0.03341
G1 X168.086 Y99.686 E0.03341
G1 X168.204 Y100.745 E0.03341
G1 X168.295 Y101.806 E0.03341
G1 X168.361 Y102.870 E0.03341
G1 X168.400 Y103.935 E0.03341
G1 X168.413 Y105.000 E0.03341
G1 X168.400 Y106.065 E0.03341
G1 X168.361 Y107.130 E0.03341
G1 X168.295 Y108.194 E0.03341
G1 X168.204 Y109.255 E0.03341
G1 X168.086 Y110.314 E0.03341
G1 X167.943 Y111.370 E0.03341
G1 X167.774 Y112.422 E0.03341
G1 X167.579 Y113.469 E0.03341
G1 X167.358 Y114.512 E0.03341
G1 X167.112 Y115.548 E0.03341
G1 X166.840 Y116.579 E0.03341
G1 X166.544 Y117.602 E0.03341
G1 X166.222 Y118.618 E0.03341
G1 X165.875 Y119.625 E0.03341
G1 X165.504 Y120.624 E0.03341
G1 X165.108 Y121.613 E0.03341
G1 X164.688 Y122.593 E0.03341
G1 X164.245 Y123.561 E0.03341
G1 X163.777 Y124.519 E0.03341
G1 X163.287 Y125.465 E0.03341
G1 X162.773 Y126.398 E0.03341
G1 X162.236 Y127.319 E0.03341
G1 X161.678 Y128.226 E0.03341
G1 X161.096 Y129.119 E0.03341
G1 X160.494 Y129.997 E0.03341
G1 X159.870 Y130.861 E0.03341
G1 X159.224 Y131.709 E0.03341
G1 X158.559 Y132.541 E0.03341
G1 X157.873 Y133.356 E0.03341
G1 X157.167 Y134.154 E0.03341
G1 X156.442 Y134.935 E0.03341
G1 X155.698 Y135.698 E0.03341
G1 X154.935 Y136.442 E0.03341
G1 X154.154 Y137.167 E0.03341
G1 X153.356 Y137.873 E0.03341
G1 X152.541 Y138.559 E0.03341
G1 X151.709 Y139.224 E0.03341
G1 X150.861 Y139.870 E0.03341
G1 X149.997 Y140.494 E0.03341
G1 X149.119 Y141.096 E0.03341
G1 X148.226 Y141.678 E0.03341
G1 X147.319 Y142.236 E0.03341
G1 X146.398 Y142.773 E0.03341
G1 X145.465 Y143.287 E0.03341
G1 X144.519 Y143.777 E0.03341
G1 X143.561 Y144.245 E0.03341
G1 X142.593 Y144.688 E0.03341
G1 X141.613 Y145.108 E0.03341
G1 X140.624 Y145.504 E0.03341
G1 X139.625 Y145.875 E0.03341
G1 X138.618 Y146.222 E0.03341
G1 X137.602 Y146.544 E0.03341
G1 X136.579 Y146.840 E0.03341
G1 X135.548 Y147.112 E0.03341
G1 X134.512 Y147.358 E0.03341
G1 X133.469 Y147.579 E0.03341
G1 X132.422 Y147.774 E0.03341
G1 X131.370 Y147.943 E0.03341
G1 X130.314 Y148.086 E0.03341
G1 X129.255 Y148.204 E0.03341
G1 X128.194 Y148.295 E0.03341
G1 X127.130 Y148.361 E0.03341
G1 X126.065 Y148.400 E0.03341
G1 X125.000 Y148.413 E0.03341
G1 X123.935 Y148.400 E0.03341
G1 X122.870 Y148.361 E0.03341
G1 X121.806 Y148.295 E0.03341
G1 X120.745 Y148.204 E0.03341
G1 X119.686 Y148.086 E0.03341
G1 X118.630 Y147.943 E0.03341
G1 X117.578 Y147.774 E0.03341
G1 X116.531 Y147.579 E0.03341
G1 X115.488 Y147.358 E0.03341
G1 X114.452 Y147.112 E0.03341
G1 X113.421 Y146.840 E0.03341
G1 X112.398 Y146.544 E0.03341
G1 X111.382 Y146.222 E0.03341
G1 X110.375 Y145.875 E0.03341
G1 X109.376 Y145.504 E0.03341
G1 X108.387 Y145.108 E0.03341
G1 X107.407 Y144.688 E0.03341
G1 X106.439 Y144.245 E0.03341
G1 X105.481 Y143.777 E0.03341
G1 X104.535 Y143.287 E0.03341
G1 X103.602 Y142.773 E0.03341
G1 X102.681 Y142.236 E0.03341
G1 X101.774 Y141.678 E0.03341
G1 X100.881 Y141.096 E0.03341
G1 X100.003 Y140.494 E0.03341
G1 X99.139 Y139.870 E0.03341
G1 X98.291 Y139.224 E0.03341
G1 X97.459 Y138.559 E0.03341
G1 X96.644 Y137.873 E0.03341
G1 X95.846 Y137.167 E0.03341
G1 X95.065 Y136.442 E0.03341
G1 X94.302 Y135.698 E0.03341
G1 X93.558 Y134.935 E0.03341
G1 X92.833 Y134.154 E0.03341
G1 X92.127 Y133.356 E0.03341
G1 X91.441 Y132.541 E0.03341
G1 X90.776 Y131.709 E0.03341
G1 X90.130 Y130.861 E0.03341
G1 X89.506 Y129.997 E0.03341
G1 X88.904 Y129.119 E0.03341
G1 X88.322 Y128.226 E0.03341
G1 X87.764 Y127.319 E0.03341
G1 X87.227 Y126.398 E0.03341
G1 X86.713 Y125.465 E0.03341
G1 X86.223 Y124.519 E0.03341
G1 X85.755 Y123.561 E0.03341
G1 X85.312 Y122.593 E0.03341
G1 X84.892 Y121.613 E0.03341
G1 X84.496 Y120.624 E0.03341
G1 X84.125 Y119.625 E0.03341
G1 X83.778 Y118.618 E0.03341
G1 X83.456 Y117.602 E0.03341
G1 X83.160 Y116.579 E0.03341
G1 X82.888 Y115.548 E0.03341
G1 X82.642 Y114.512 E0.03341
G1 X82.421 Y113.469 E0.03341
G1 X82.226 Y112.422 E0.03341
G1 X82.057 Y111.370 E0.03341
